!!!OTL: HO HO VIVAT HO HO VIVAT
!!!ARE: Europa, Mitteleuropa, Deutschland
!!!SCT: F0532
!!!YEM: Copyright 1995, estate of Helmut Schaffrath.
**kern
*ICvox
*Ivox
*M4/4
*k[f#]
*G:
{4d
=1
4.g
8g
4g
4a
=2
4.b
8b
4b}
{4cc
=3
4dd
4b
8dd
8cc
8b
8a
=4
2g
4r}
{4d
=5
4.g
8g
4g
4a
=6
4.b
8b
4b}
{4cc
=7
4dd
4b
8dd
8cc
8b
8a
=8
2g
4r}
{4g
=9
4.dd
8dd
4dd
4gg
=10
2ee
4ee}
{4dd
=11
4.cc
8b
4cc
4a
=12
2dd
4dd}
{4d
=13
4.g
8g
4g
4a
=14
4.b
8b
4b}
{4cc
=15
4dd
4b
8dd
8cc
8b
8a
=16
2g
4r}
==
!!!AGN: Studenten -, Trink - Lied
!!!ONB: ESAC (Essen Associative Code) Database: FINK
!!!AMT: simple quadruple
!!!AIN: vox
!!!EED: Helmut Schaffrath
!!!EEV: 1.0
*-
